!!!COM: Bach, Johann Sebastian
!!!CDT: 1685/3//-1750/7/28/
!!!OTL@@DE: Es ist das Heil uns kommen her
!!!AGN: 4-Part Chorale
!!!SCT: BH 290
!!!SCT: BWV 9
**harm	**root	**kern	**kern	**kern	**kern
!	!	!bass	!tenor	!alto	!soprno
*	*Iorgan	*Iorgan	*Iorgan	*Iorgan	*Iorgan
*M4/4	*M4/4	*M4/4	*M4/4	*M4/4	*M4/4
*met(c)	*met(c)	*met(c)	*met(c)	*met(c)	*met(c)
*MM60	*MM60	*MM60	*MM60	*MM60	*MM60
*k[f#c#g#]	*k[f#c#g#]	*k[f#c#g#]	*k[f#c#g#]	*k[f#c#g#]	*k[f#c#g#]
*A:	*A:	*A:	*A:	*A:	*A:
*>[A,A,B]	*>[A,A,B]	*>[A,A,B]	*>[A,A,B]	*>[A,A,B]	*>[A,A,B]
*>A	*>A	*>A	*>A	*>A	*>A
I	4EE	4A	4a	4cc#	4ee
=1	=1	=1	=1	=1	=1
I	4EE	4A	4e	8b	4ee
.	.	.	.	8cc#	.
V7b	4BB	4G#	4b	4dd	4ee
I	8EE	4A	4a	8cc#	8ee
IVc	8AA	.	.	8dd	8ff#
V7b/IV	4EE	4C#	4a	4ee	4gg
=2	=2	=2	=2	=2	=2
IV	8AA	4D	8a	8ee	4ff#
iib	8FF#	.	8b	8dd	.
-IIIb	8GG	8E	4cc	8g	4ee
viio7/-VII	8CC#	8F#	.	8a	.
-VII;	4DD;	4G;	4g;	4b;	4dd;
Vb	4BB	4G#	4e	4b	8ee
.	.	.	.	.	8dd
=3	=3	=3	=3	=3	=3
I	4EE	4.A	8e	4a	8cc#
.	.	.	8d	.	8b
I	4EE	.	4c#	4e	8a
.	.	8G#	.	.	8b
vi	4CC#	8F#	4f#	4a	4cc#
.	.	8G#	.	.	.
V7d/V	4FF#	8A	4B	4f#	4dd#
.	.	8B	.	.	.
=4	=4	=4	=4	=4	=4
Vb	8BB	8G#	8B	4.b	4ee
V	8BB	8E	8e	.	.
V/V	4FF#	4B	4d#	.	4ff#
.	.	.	.	8a	.
V;	4BB;	4E;	4B;	4g#;	4ee;
=:|!	=:|!	=:|!	=:|!	=:|!	=:|!
*>B	*>B	*>B	*>B	*>B	*>B
I	4EE	8A	4c#	8a	4ee
.	.	8G#	.	8b	.
=5	=5	=5	=5	=5	=5
vi	4CC#	4F#	4f#	8cc#	4aa
.	.	.	.	8dd#	.
V	4BB	4E	8g#	4ee	4gg#
.	.	.	8a	.	.
V/V	4FF#	8B	4b	8dd#	4ff#
.	.	8c#	.	8cc#	.
V7d	4BB	8d	4e	4b	4gg#
.	.	8B	.	.	.
!!linebreak: 2
=6	=6	=6	=6	=6	=6
Ib	8EE	8c#	4e	8ee	8aa
I7	8EE	8A	.	8cc#	8gg#
V/V	4FF#	4B	8b	4dd#	4ff#
.	.	.	8a	.	.
V;	4BB;	4E;	4g#;	4b;	4ee;
I	4EE	8A	4a	8cc#	4ee
.	.	8B	.	8dd	.
=7	=7	=7	=7	=7	=7
Ib	8EE	8c#	8e	8ee	4aa
IV	8AA	8d	8f#	8dd	.
v	4BB	4e	4g	8cc#	4ee
.	.	.	.	8b	.
V7d/ii	8CC#	8e	8f#	8a#	4ff#
viio7c	8DD#	8d	8g#	8b	.
viib/ii	8EE#	8c#	8a#	8cc#	8cc#
ii	8FF#	8B	8b	8f#	8dd
=8	=8	=8	=8	=8	=8
V7b/ii	4CC#	4A#	8cc#	8f#	4ee
.	.	.	8f#	8cc#	.
ii	4FF#	4B	4f#	8cc#	4dd
.	.	.	.	8b	.
VI;	4CC#;	4F#;	4f#;	8b	4cc#;
.	.	.	.	8a#;	.
VI	4CC#	8f#	4f#	4a#	4cc#
.	.	8e	.	.	.
=9	=9	=9	=9	=9	=9
iib	8FF#	8d	8f#	8b	8b
Ib	8EE	8c#	8e	8a	8cc#
viiob	4DD#	4B	4d	8g#	4dd
.	.	.	.	8f#	.
Ic	8EE	8c#	4a	8e	4cc#
IV7	8AA	8d	.	8f#	.
V	4BB	4e	8e	4g#	4b
.	.	.	8d	.	.
=10	=10	=10	=10	=10	=10
viioD7d/-VII	4CC#	8e	4c	4a	4f#
.	.	8d#	.	.	.
V	4BB	4e	8B	4e	4g#
.	.	.	8d	.	.
I;	4EE;	4A;	4c#;	4e;	4a;
==	==	==	==	==	==
*-	*-	*-	*-	*-	*-
!!chor2scor: -l 2 -s 0.6 -o %b.pmx
!!!YEC: Copyright 1994, David Huron
!!!YEC: Changes/Additions 2001 by Craig Stuart Sapp
!!!YEN: United States of America
!!!SMA: 371 Bach Chorales, edited by Ludwig Erk, C.F. Peters
!!!PDT: 1850, 1865
!!!ONB: Harmony and Root analysis done manually by Craig Sapp
